src/pos-icons/format-vertical-align-bottom.svg

<svg height="24" viewBox="0 0 24 24" width="24" xmlns="http://www.w3.org/2000/svg"><path d="m16 13h-3v-10h-2v10h-3l4 4zm-12 6v2h16v-2z"/></svg>

<?xml version="1.0" encoding="UTF-8"?><!DOCTYPE svg PUBLIC "-//W3C//DTD SVG 1.1//EN" "http://www.w3.org/Graphics/SVG/1.1/DTD/svg11.dtd"><svg xmlns="http://www.w3.org/2000/svg" xmlns:xlink="http://www.w3.org/1999/xlink" version="1.1" id="mdi-format-vertical-align-bottom" width="24" height="24" viewBox="0 0 24 24"><path d="M16,13H13V3H11V13H8L12,17L16,13M4,19V21H20V19H4Z" /></svg>
